web/app/src/assets/images/kots-logo.svg

<?xml version="1.0" encoding="utf-8"?>
<!-- Generator: Adobe Illustrator 16.0.0, SVG Export Plug-In . SVG Version: 6.00 Build 0)  -->
<!DOCTYPE svg PUBLIC "-//W3C//DTD SVG 1.1//EN" "http://www.w3.org/Graphics/SVG/1.1/DTD/svg11.dtd">
<svg version="1.1" id="Layer_1" xmlns="http://www.w3.org/2000/svg" xmlns:xlink="http://www.w3.org/1999/xlink" x="0px" y="0px"
	 width="187px" height="25px" viewBox="0 0 187 25" enable-background="new 0 0 187 25" xml:space="preserve">
<title>kots-logo</title>
<desc>Created with Sketch.</desc>
<g id="Page-1">
	<g id="New-LANDING" transform="translate(-940.000000, -2396.000000)">
		<g id="Group-12" transform="translate(151.000000, 2396.000000)">
			<g id="kots-logo" transform="translate(789.000000, 0.000000)">
				<g id="font-badge-white">
					<g id="Layer_1_1_">
						<g id="Group">
							<path id="Shape" fill="#545454" d="M5.303,16.667c0,0.828-0.262,1.457-0.783,1.894c-0.523,0.436-1.137,0.651-1.84,0.651
								c-0.727,0-1.35-0.217-1.873-0.651c-0.521-0.437-0.783-1.064-0.783-1.894V3.256c0-0.827,0.262-1.458,0.783-1.893
								C1.331,0.928,1.954,0.711,2.68,0.711c0.703,0,1.316,0.217,1.84,0.652c0.521,0.435,0.783,1.066,0.783,1.893v4.253L9.592,1.58
								C9.889,1.27,10.2,1.032,10.52,0.866s0.693-0.249,1.119-0.249c0.363,0,0.709,0.073,1.041,0.217
								c0.33,0.145,0.623,0.331,0.881,0.559c0.256,0.228,0.457,0.502,0.607,0.823c0.148,0.321,0.223,0.647,0.223,0.978
								c0,0.601-0.201,1.128-0.607,1.583L9.112,9.868l4.672,5.184c0.428,0.476,0.641,1.015,0.641,1.613
								c0,0.353-0.08,0.685-0.238,0.992c-0.16,0.311-0.369,0.579-0.625,0.809c-0.256,0.228-0.551,0.414-0.881,0.56
								c-0.33,0.146-0.666,0.219-1.008,0.219c-0.811,0-1.494-0.332-2.047-0.994l-4.32-5.834v4.252L5.303,16.667L5.303,16.667z"/>
							<path id="Shape_1_" fill="#545454" d="M21.817,16.667c0,0.828-0.264,1.457-0.785,1.894c-0.521,0.436-1.135,0.651-1.84,0.651
								c-0.727,0-1.35-0.217-1.871-0.651c-0.523-0.437-0.785-1.064-0.785-1.894V3.256c0-0.827,0.262-1.458,0.785-1.893
								c0.521-0.435,1.145-0.652,1.871-0.652c0.705,0,1.316,0.217,1.84,0.652c0.524,0.435,0.785,1.066,0.785,1.893V16.667z"/>
							<path id="Shape_2_" fill="#545454" d="M29.624,16.667c0,0.828-0.262,1.457-0.783,1.894c-0.523,0.436-1.146,0.651-1.873,0.651
								c-0.703,0-1.316-0.217-1.84-0.651c-0.521-0.437-0.783-1.064-0.783-1.894V3.256c0-0.827,0.262-1.458,0.783-1.893
								c0.523-0.435,1.137-0.652,1.84-0.652h0.129c0.938,0,1.609,0.383,2.018,1.148l4.799,7.046V3.256
								c0-0.827,0.262-1.458,0.785-1.893c0.521-0.435,1.135-0.652,1.84-0.652c0.725,0,1.348,0.217,1.871,0.652
								c0.521,0.435,0.783,1.066,0.783,1.893v13.41c0,0.828-0.262,1.459-0.783,1.895c-0.523,0.437-1.146,0.65-1.871,0.65
								c-0.363,0-0.672-0.041-0.93-0.123c-0.256-0.084-0.475-0.188-0.654-0.312c-0.182-0.123-0.326-0.248-0.434-0.37
								c-0.105-0.125-0.191-0.229-0.256-0.312l-4.641-6.704V16.667L29.624,16.667z"/>
							<path id="Shape_3_" fill="#545454" d="M55.448,16.667c0,0.808-0.256,1.438-0.77,1.894c-0.512,0.457-1.15,0.684-1.92,0.684
								h-1.92c-1.578,0-2.965-0.264-4.16-0.793c-1.193-0.527-2.189-1.215-2.99-2.062c-0.801-0.847-1.398-1.82-1.793-2.918
								s-0.592-2.224-0.592-3.383c0-1.18,0.207-2.328,0.623-3.445c0.416-1.118,1.035-2.121,1.857-3.011
								c0.818-0.889,1.854-1.603,3.104-2.142c1.248-0.538,2.703-0.807,4.367-0.807h1.504c0.449,0,0.838,0.073,1.168,0.217
								c0.332,0.145,0.609,0.341,0.832,0.59c0.225,0.249,0.396,0.528,0.514,0.838c0.115,0.311,0.176,0.632,0.176,0.962
								c0,0.331-0.061,0.652-0.176,0.962c-0.117,0.31-0.289,0.59-0.514,0.838c-0.223,0.249-0.5,0.445-0.832,0.59
								c-0.33,0.145-0.719,0.217-1.168,0.217h-1.92c-0.746,0-1.391,0.114-1.936,0.341c-0.545,0.228-1.004,0.533-1.375,0.916
								c-0.375,0.383-0.652,0.817-0.832,1.303c-0.184,0.487-0.273,0.989-0.273,1.506c0,0.476,0.08,0.942,0.24,1.396
								c0.16,0.456,0.395,0.875,0.705,1.257c0.309,0.383,0.697,0.702,1.168,0.961c0.469,0.26,1.012,0.42,1.631,0.481v-3.012
								c0-0.828,0.262-1.459,0.785-1.894c0.521-0.435,1.145-0.652,1.871-0.652c0.705,0,1.316,0.217,1.84,0.652
								c0.521,0.435,0.785,1.066,0.785,1.894v5.622h0.001V16.667z"/>
							<path id="Shape_4_" fill="#545454" d="M71.098,11.813c0.088,0.021,0.176,0.021,0.242,0.021c1.012,0,2.441-0.641,3.389-1.281
								l0.197,0.577c-0.836,0.875-2.289,1.516-3.873,1.771c-0.352,3.972-2.572,6.468-5.279,6.468c-2.047,0-3.521-0.938-3.521-3.371
								c0-2.455,1.496-7.537,6.029-7.537C70.153,8.462,71.077,9.593,71.098,11.813z M69.206,12.966
								c-0.461-0.107-0.594-0.471-0.594-0.896c0-0.599,0.287-0.982,0.684-1.131c-0.045-0.875-0.287-1.195-0.838-1.195
								c-1.561,0-2.926,3.8-2.926,5.892c0,1.408,0.287,1.729,1.123,1.729C67.733,17.365,68.875,15.484,69.206,12.966z"/>
							<path id="Shape_5_" fill="#545454" d="M79.61,6.435c0.021-0.213,0.045-0.384,0.045-0.577c0-0.491-0.396-0.726-0.836-0.726
								c-0.484,0-1.232,0.32-1.541,1.75l-0.373,1.687h1.604l-0.152,0.854h-1.629l-2.53,11.528c-0.66,3.053-2.486,3.629-3.939,3.629
								c-1.342,0-2.596-0.918-2.596-2.307c0-1.965,1.693-2.584,3.785-3.203L74.11,6.883c0.66-3.053,2.553-3.629,4.004-3.629
								c1.342,0,2.598,0.918,2.598,2.305c0,0.342-0.021,0.619-0.066,0.875L79.61,6.435L79.61,6.435z M69.752,22.68
								c0.461,0,0.967-0.406,1.254-1.666l0.285-1.238c-1.385,0.449-2.42,1.049-2.42,2.199C68.874,22.273,69.268,22.68,69.752,22.68z
								"/>
							<path id="Shape_6_" fill="#545454" d="M88.295,5.196l-0.748,3.373h1.32l-0.178,0.854h-1.32l-1.408,6.403
								c-0.064,0.277-0.088,0.492-0.088,0.684c0,0.6,0.287,0.791,0.902,0.791c0.857,0,1.65-0.812,1.98-1.879h0.924
								c-1.254,3.479-3.434,3.947-4.619,3.947c-1.32,0-2.355-0.768-2.355-2.561c0-0.406,0.066-0.875,0.176-1.39l1.32-6h-0.727
								l0.178-0.854h0.725l0.66-2.946L88.295,5.196z"/>
							<path id="Shape_7_" fill="#545454" d="M94.323,10.426c-0.793,0-1.387,0.896-1.717,1.964l-1.496,6.854h-3.168l3.189-14.516
								L94.387,4.3L93.2,9.679c0.923-1.024,1.892-1.195,2.573-1.195c1.406,0,2.441,0.704,2.441,2.412
								c0,1.729-1.057,4.312-1.057,5.506c0,0.535,0.221,0.896,0.881,0.896c0.967,0,1.361-0.768,1.848-1.879h0.926
								c-1.231,3.502-2.928,3.949-4.094,3.949c-1.914,0-2.598-1.195-2.598-2.412c0-1.451,0.988-4.076,0.988-5.442
								C95.113,10.811,94.85,10.426,94.323,10.426z"/>
							<path id="Shape_8_" fill="#545454" d="M102.855,15.591c0,0.854,0.265,1.75,1.363,1.75c0.836,0,1.893-0.532,2.598-1.131
								c-0.463,2.435-2.047,3.158-3.809,3.158c-2.045,0-3.41-0.979-3.41-3.394c0-2.436,1.432-7.515,5.941-7.515
								c1.957,0,2.42,0.982,2.42,2.049c0,2.434-2.42,4.271-5.062,4.419C102.877,15.143,102.855,15.357,102.855,15.591z
								 M105.715,9.593c-1.1,0-2.201,2.307-2.662,4.313c1.717-0.086,3.213-1.688,3.213-3.438
								C106.266,9.936,106.133,9.593,105.715,9.593z"/>
							<path id="Shape_9_" fill="#545454" d="M127.917,13.684c0,3.707-1.858,5.561-5.58,5.561h-4.92
								c-1.58,0-2.371-0.777-2.371-2.328v-0.088c0.041-1.609,0.843-2.414,2.399-2.414h5.16c0.34,0,0.59-0.094,0.75-0.275
								c0.158-0.186,0.24-0.385,0.24-0.598s-0.082-0.412-0.24-0.598c-0.16-0.186-0.41-0.275-0.75-0.275h-2.551
								c-3.52,0-5.279-1.755-5.279-5.268c0-3.705,1.882-5.558,5.642-5.558h3.959c1.58,0,2.371,0.776,2.371,2.328v0.087
								c-0.041,1.61-0.84,2.415-2.399,2.415h-4.261c-0.34,0-0.59,0.092-0.75,0.276c-0.16,0.185-0.239,0.383-0.239,0.597
								s0.079,0.413,0.239,0.597c0.16,0.185,0.41,0.276,0.75,0.276h2.552C126.157,8.417,127.917,10.173,127.917,13.684z"/>
							<path id="Shape_10_" fill="#545454" d="M137.907,16.828c0,0.775-0.246,1.367-0.736,1.773c-0.489,0.407-1.073,0.61-1.754,0.61
								c-0.66,0-1.235-0.203-1.726-0.61c-0.489-0.406-0.735-0.998-0.735-1.773V6.671h-1.74c-0.776,0-1.389-0.237-1.829-0.713
								c-0.438-0.475-0.658-1.042-0.658-1.702c0-0.66,0.223-1.227,0.658-1.703c0.44-0.475,1.053-0.713,1.829-0.713h8.371
								c0.779,0,1.392,0.238,1.83,0.713c0.438,0.476,0.66,1.043,0.66,1.703c0,0.66-0.222,1.227-0.66,1.702
								c-0.44,0.476-1.051,0.713-1.83,0.713h-1.68V16.828L137.907,16.828z"/>
							<path id="Shape_11_" fill="#545454" d="M151.497,15.869h-5.312l-0.75,1.859c-0.221,0.543-0.522,0.938-0.914,1.182
								c-0.393,0.24-0.813,0.361-1.272,0.361c-0.342,0-0.666-0.054-0.978-0.16c-0.312-0.104-0.598-0.262-0.854-0.465
								c-0.263-0.205-0.465-0.439-0.615-0.713c-0.149-0.271-0.225-0.582-0.225-0.933s0.067-0.668,0.209-0.959l5.909-12.659
								c0.261-0.543,0.609-0.95,1.052-1.222c0.438-0.271,0.89-0.408,1.351-0.408c0.459,0,0.903,0.136,1.334,0.408
								c0.432,0.272,0.756,0.679,0.979,1.222l5.43,12.659c0.141,0.291,0.211,0.608,0.211,0.959c0,0.33-0.076,0.638-0.228,0.918
								c-0.147,0.281-0.354,0.522-0.612,0.728c-0.263,0.205-0.551,0.358-0.871,0.469c-0.32,0.104-0.642,0.158-0.959,0.158
								c-0.461,0-0.893-0.121-1.291-0.363c-0.4-0.242-0.699-0.637-0.9-1.18L151.497,15.869z M147.747,12.083h2.397l-1.108-3.115
								L147.747,12.083z"/>
							<path id="Shape_12_" fill="#545454" d="M167.275,6.729c-0.698,0-1.307,0.107-1.813,0.32c-0.51,0.214-0.938,0.5-1.291,0.858
								c-0.351,0.359-0.608,0.767-0.778,1.222c-0.17,0.456-0.256,0.927-0.256,1.412s0.086,0.96,0.256,1.425
								c0.17,0.467,0.434,0.879,0.778,1.238c0.351,0.356,0.781,0.647,1.291,0.871c0.511,0.225,1.104,0.334,1.785,0.334h1.83
								c0.42,0,0.782,0.067,1.094,0.205c0.312,0.137,0.57,0.319,0.781,0.553c0.209,0.231,0.362,0.496,0.465,0.787
								c0.101,0.289,0.149,0.58,0.149,0.871c0,0.62-0.211,1.18-0.631,1.674c-0.422,0.494-1.041,0.742-1.858,0.742h-1.802
								c-1.479,0-2.778-0.248-3.899-0.742c-1.119-0.494-2.056-1.14-2.806-1.937c-0.75-0.795-1.311-1.707-1.682-2.733
								c-0.369-1.027-0.555-2.084-0.555-3.171c0-1.106,0.193-2.183,0.586-3.23c0.391-1.048,0.969-1.988,1.74-2.823
								c0.77-0.834,1.738-1.503,2.908-2.008c1.172-0.505,2.535-0.757,4.096-0.757h1.41c0.42,0,0.783,0.068,1.096,0.204
								c0.311,0.136,0.57,0.32,0.779,0.553c0.211,0.232,0.369,0.495,0.479,0.786c0.111,0.291,0.166,0.592,0.166,0.902
								c0,0.311-0.055,0.611-0.166,0.902c-0.107,0.291-0.27,0.553-0.479,0.786s-0.473,0.417-0.779,0.553
								c-0.312,0.136-0.676,0.204-1.096,0.204L167.275,6.729L167.275,6.729z"/>
							<path id="Shape_13_" fill="#545454" d="M178.254,16.828c0,0.775-0.244,1.367-0.732,1.773c-0.489,0.407-1.065,0.61-1.727,0.61
								c-0.68,0-1.268-0.203-1.756-0.61c-0.49-0.406-0.734-0.998-0.734-1.773V4.256c0-0.776,0.244-1.368,0.734-1.775
								c0.488-0.407,1.076-0.611,1.756-0.611c0.66,0,1.232,0.204,1.727,0.611c0.488,0.408,0.732,1,0.732,1.775v3.986l4.021-5.558
								c0.279-0.291,0.566-0.514,0.871-0.669c0.299-0.155,0.646-0.233,1.049-0.233c0.341,0,0.664,0.068,0.976,0.204
								c0.312,0.136,0.586,0.311,0.826,0.524c0.239,0.214,0.43,0.471,0.569,0.771c0.14,0.301,0.209,0.606,0.209,0.917
								c0,0.562-0.188,1.058-0.569,1.484l-4.379,4.772l4.379,4.858c0.399,0.446,0.601,0.951,0.601,1.514
								c0,0.33-0.072,0.641-0.226,0.932c-0.149,0.291-0.345,0.543-0.584,0.758c-0.24,0.215-0.517,0.389-0.826,0.523
								s-0.625,0.203-0.942,0.203c-0.763,0-1.4-0.311-1.922-0.932l-4.05-5.472v3.986h-0.002L178.254,16.828L178.254,16.828z"/>
						</g>
					</g>
				</g>
			</g>
		</g>
	</g>
</g>
</svg>

<?xml version="1.0" encoding="UTF-8"?>
<svg width="187px" height="25px" viewBox="0 0 187 25" version="1.1" xmlns="http://www.w3.org/2000/svg" xmlns:xlink="http://www.w3.org/1999/xlink">
    <!-- Generator: Sketch 41.2 (35397) - http://www.bohemiancoding.com/sketch -->
    <title>kots-logo</title>
    <desc>Created with Sketch.</desc>
    <defs></defs>
    <g id="Page-1" stroke="none" stroke-width="1" fill="none" fill-rule="evenodd">
        <g id="New-LANDING" transform="translate(-940.000000, -2396.000000)" fill="#3C3C3C">
            <g id="Group-12" transform="translate(151.000000, 2396.000000)">
                <g id="kots-logo" transform="translate(789.000000, 0.000000)">
                    <g id="font-badge-white">
                        <g id="Layer_1">
                            <g id="Group">
                                <path d="M5.303,16.667 C5.303,17.495 5.041,18.124 4.52,18.56 C3.997,18.996 3.383,19.212 2.68,19.212 C1.953,19.212 1.33,18.995 0.807,18.56 C0.286,18.124 0.024,17.496 0.024,16.667 L0.024,3.256 C0.024,2.429 0.286,1.798 0.807,1.363 C1.331,0.928 1.954,0.711 2.68,0.711 C3.383,0.711 3.996,0.928 4.52,1.363 C5.041,1.798 5.303,2.429 5.303,3.256 L5.303,7.509 L9.592,1.58 C9.889,1.27 10.2,1.032 10.52,0.866 C10.84,0.7 11.213,0.617 11.639,0.617 C12.002,0.617 12.348,0.69 12.68,0.834 C13.01,0.979 13.303,1.165 13.561,1.393 C13.817,1.621 14.018,1.895 14.168,2.216 C14.316,2.537 14.391,2.863 14.391,3.194 C14.391,3.795 14.19,4.322 13.784,4.777 L9.112,9.868 L13.784,15.052 C14.212,15.528 14.425,16.067 14.425,16.665 C14.425,17.018 14.345,17.35 14.187,17.657 C14.027,17.968 13.818,18.237 13.562,18.466 C13.306,18.694 13.011,18.88 12.681,19.026 C12.351,19.172 12.015,19.244 11.673,19.244 C10.862,19.244 10.179,18.912 9.626,18.25 L5.306,12.416 L5.306,16.668 L5.303,16.668 L5.303,16.667 Z" id="Shape"></path>
                                <path d="M21.817,16.667 C21.817,17.495 21.553,18.124 21.032,18.56 C20.511,18.996 19.897,19.212 19.192,19.212 C18.465,19.212 17.842,18.995 17.321,18.56 C16.798,18.124 16.536,17.496 16.536,16.667 L16.536,3.256 C16.536,2.429 16.798,1.798 17.321,1.363 C17.842,0.928 18.466,0.711 19.192,0.711 C19.897,0.711 20.508,0.928 21.032,1.363 C21.556,1.798 21.817,2.429 21.817,3.256 L21.817,16.667 Z" id="Shape"></path>
                                <path d="M29.624,16.667 C29.624,17.495 29.362,18.124 28.841,18.56 C28.318,18.996 27.695,19.212 26.968,19.212 C26.265,19.212 25.652,18.995 25.128,18.56 C24.607,18.124 24.345,17.496 24.345,16.667 L24.345,3.256 C24.345,2.429 24.607,1.798 25.128,1.363 C25.651,0.928 26.265,0.711 26.968,0.711 L27.097,0.711 C28.035,0.711 28.706,1.094 29.115,1.859 L33.914,8.905 L33.914,3.256 C33.914,2.429 34.176,1.798 34.699,1.363 C35.22,0.928 35.834,0.711 36.539,0.711 C37.264,0.711 37.887,0.928 38.41,1.363 C38.931,1.798 39.193,2.429 39.193,3.256 L39.193,16.666 C39.193,17.494 38.931,18.125 38.41,18.56 C37.887,18.997 37.264,19.211 36.539,19.211 C36.176,19.211 35.867,19.17 35.609,19.088 C35.353,19.004 35.134,18.9 34.955,18.776 C34.773,18.653 34.629,18.528 34.521,18.405 C34.416,18.28 34.33,18.176 34.265,18.093 L29.624,11.389 L29.624,16.667 L29.624,16.667 Z" id="Shape"></path>
                                <path d="M55.448,16.667 C55.448,17.474 55.192,18.105 54.678,18.56 C54.166,19.017 53.528,19.244 52.758,19.244 L50.838,19.244 C49.26,19.244 47.873,18.98 46.678,18.451 C45.485,17.924 44.489,17.236 43.688,16.389 C42.887,15.542 42.29,14.568 41.895,13.471 C41.5,12.373 41.303,11.247 41.303,10.088 C41.303,8.908 41.51,7.76 41.926,6.643 C42.342,5.525 42.961,4.522 43.783,3.632 C44.601,2.743 45.637,2.029 46.887,1.49 C48.135,0.952 49.59,0.683 51.254,0.683 L52.758,0.683 C53.207,0.683 53.596,0.756 53.926,0.9 C54.258,1.045 54.535,1.241 54.758,1.49 C54.983,1.739 55.154,2.018 55.272,2.328 C55.387,2.639 55.448,2.96 55.448,3.29 C55.448,3.621 55.387,3.942 55.272,4.252 C55.155,4.562 54.983,4.842 54.758,5.09 C54.535,5.339 54.258,5.535 53.926,5.68 C53.596,5.825 53.207,5.897 52.758,5.897 L50.838,5.897 C50.092,5.897 49.447,6.011 48.902,6.238 C48.357,6.466 47.898,6.771 47.527,7.154 C47.152,7.537 46.875,7.971 46.695,8.457 C46.511,8.944 46.422,9.446 46.422,9.963 C46.422,10.439 46.502,10.905 46.662,11.359 C46.822,11.815 47.057,12.234 47.367,12.616 C47.676,12.999 48.064,13.319 48.535,13.577 C49.004,13.837 49.547,13.997 50.166,14.059 L50.166,11.047 C50.166,10.219 50.428,9.588 50.951,9.153 C51.472,8.718 52.096,8.501 52.822,8.501 C53.527,8.501 54.138,8.718 54.662,9.153 C55.183,9.588 55.447,10.219 55.447,11.047 L55.447,16.669 L55.448,16.669 L55.448,16.667 Z" id="Shape"></path>
                                <path d="M71.098,11.813 C71.186,11.834 71.274,11.834 71.34,11.834 C72.352,11.834 73.781,11.193 74.729,10.553 L74.926,11.13 C74.09,12.005 72.637,12.646 71.053,12.901 C70.701,16.873 68.481,19.369 65.774,19.369 C63.727,19.369 62.253,18.431 62.253,15.998 C62.253,13.543 63.749,8.461 68.282,8.461 C70.153,8.462 71.077,9.593 71.098,11.813 Z M69.206,12.966 C68.745,12.859 68.612,12.495 68.612,12.07 C68.612,11.471 68.899,11.088 69.296,10.939 C69.251,10.064 69.009,9.744 68.458,9.744 C66.897,9.744 65.532,13.544 65.532,15.636 C65.532,17.044 65.819,17.365 66.655,17.365 C67.733,17.365 68.875,15.485 69.206,12.966 Z" id="Shape"></path>
                                <path d="M79.61,6.435 C79.631,6.222 79.655,6.051 79.655,5.858 C79.655,5.367 79.259,5.132 78.819,5.132 C78.335,5.132 77.587,5.452 77.278,6.882 L76.905,8.569 L78.509,8.569 L78.357,9.423 L76.728,9.423 L74.198,20.951 C73.538,24.004 71.712,24.58 70.259,24.58 C68.917,24.58 67.663,23.662 67.663,22.274 C67.663,20.309 69.356,19.69 71.448,19.071 L74.11,6.883 C74.77,3.83 76.663,3.254 78.114,3.254 C79.456,3.254 80.712,4.172 80.712,5.559 C80.712,5.901 80.691,6.178 80.646,6.434 L79.61,6.435 L79.61,6.435 Z M69.752,22.679 C70.213,22.679 70.719,22.274 71.006,21.014 L71.291,19.776 C69.906,20.225 68.871,20.824 68.871,21.975 C68.874,22.274 69.268,22.679 69.752,22.679 Z" id="Shape"></path>
                                <path d="M88.295,5.196 L87.547,8.569 L88.867,8.569 L88.689,9.423 L87.369,9.423 L85.961,15.826 C85.897,16.103 85.873,16.318 85.873,16.51 C85.873,17.109 86.16,17.301 86.775,17.301 C87.632,17.301 88.425,16.489 88.755,15.422 L89.679,15.422 C88.425,18.901 86.245,19.369 85.06,19.369 C83.74,19.369 82.705,18.601 82.705,16.808 C82.705,16.402 82.771,15.933 82.881,15.419 L84.201,9.419 L83.474,9.419 L83.652,8.565 L84.377,8.565 L85.037,5.619 L88.295,5.196 Z" id="Shape"></path>
                                <path d="M94.323,10.426 C93.53,10.426 92.936,11.322 92.606,12.39 L91.11,19.244 L87.942,19.244 L91.131,4.728 L94.387,4.3 L93.2,9.679 C94.123,8.655 95.092,8.484 95.774,8.484 C97.18,8.484 98.215,9.188 98.215,10.896 C98.215,12.625 97.158,15.208 97.158,16.402 C97.158,16.937 97.379,17.298 98.039,17.298 C99.006,17.298 99.401,16.53 99.887,15.419 L100.813,15.419 C99.581,18.921 97.885,19.368 96.719,19.368 C94.805,19.368 94.121,18.173 94.121,16.956 C94.121,15.505 95.11,12.88 95.11,11.514 C95.114,10.811 94.85,10.426 94.323,10.426 Z" id="Shape"></path>
                                <path d="M102.856,15.591 C102.856,16.445 103.12,17.341 104.219,17.341 C105.055,17.341 106.112,16.809 106.817,16.21 C106.354,18.645 104.77,19.368 103.008,19.368 C100.963,19.368 99.598,18.388 99.598,15.975 C99.598,13.539 101.03,8.46 105.539,8.46 C107.496,8.46 107.959,9.442 107.959,10.509 C107.959,12.943 105.539,14.78 102.897,14.928 C102.877,15.143 102.856,15.358 102.856,15.591 Z M105.715,9.593 C104.615,9.593 103.514,11.9 103.053,13.906 C104.77,13.821 106.266,12.218 106.266,10.468 C106.266,9.936 106.133,9.593 105.715,9.593 Z" id="Shape"></path>
                                <path d="M127.917,13.684 C127.917,17.391 126.059,19.244 122.337,19.244 L117.417,19.244 C115.837,19.244 115.046,18.467 115.046,16.916 L115.046,16.828 C115.087,15.219 115.889,14.414 117.446,14.414 L122.606,14.414 C122.946,14.414 123.196,14.321 123.356,14.138 C123.514,13.953 123.596,13.754 123.596,13.541 C123.596,13.328 123.514,13.129 123.356,12.943 C123.196,12.757 122.946,12.668 122.606,12.668 L120.055,12.668 C116.535,12.668 114.776,10.913 114.776,7.4 C114.776,3.695 116.657,1.842 120.417,1.842 L124.376,1.842 C125.956,1.842 126.747,2.618 126.747,4.17 L126.747,4.257 C126.706,5.867 125.907,6.672 124.348,6.672 L120.087,6.672 C119.747,6.672 119.497,6.764 119.337,6.948 C119.177,7.133 119.098,7.331 119.098,7.545 C119.098,7.759 119.177,7.958 119.337,8.142 C119.497,8.327 119.747,8.418 120.087,8.418 L122.639,8.418 C126.157,8.417 127.917,10.173 127.917,13.684 Z" id="Shape"></path>
                                <path d="M137.907,16.828 C137.907,17.604 137.661,18.196 137.171,18.602 C136.682,19.009 136.098,19.212 135.417,19.212 C134.757,19.212 134.182,19.009 133.692,18.602 C133.202,18.196 132.956,17.604 132.956,16.828 L132.956,6.671 L131.216,6.671 C130.44,6.671 129.827,6.434 129.387,5.958 C128.949,5.483 128.729,4.916 128.729,4.256 C128.729,3.596 128.951,3.029 129.387,2.553 C129.827,2.078 130.44,1.84 131.216,1.84 L139.587,1.84 C140.366,1.84 140.979,2.078 141.417,2.553 C141.856,3.029 142.077,3.596 142.077,4.256 C142.077,4.916 141.856,5.483 141.417,5.958 C140.977,6.434 140.366,6.671 139.587,6.671 L137.907,6.671 L137.907,16.828 L137.907,16.828 Z" id="Shape"></path>
                                <path d="M151.497,15.869 L146.185,15.869 L145.435,17.729 C145.215,18.272 144.913,18.666 144.521,18.91 C144.129,19.151 143.708,19.272 143.249,19.272 C142.907,19.272 142.583,19.218 142.271,19.112 C141.959,19.008 141.674,18.85 141.417,18.647 C141.155,18.442 140.952,18.207 140.802,17.934 C140.653,17.662 140.577,17.352 140.577,17.001 C140.577,16.651 140.645,16.333 140.786,16.042 L146.696,3.383 C146.956,2.84 147.305,2.433 147.747,2.161 C148.185,1.89 148.636,1.753 149.098,1.753 C149.557,1.753 150.001,1.889 150.432,2.161 C150.864,2.433 151.188,2.84 151.41,3.383 L156.84,16.042 C156.981,16.333 157.051,16.651 157.051,17.001 C157.051,17.331 156.975,17.638 156.823,17.919 C156.676,18.2 156.469,18.442 156.211,18.647 C155.948,18.852 155.66,19.005 155.34,19.115 C155.02,19.22 154.698,19.274 154.381,19.274 C153.92,19.274 153.489,19.153 153.09,18.91 C152.69,18.668 152.391,18.274 152.19,17.731 L151.497,15.869 Z M147.747,12.083 L150.145,12.083 L149.036,8.968 L147.747,12.083 Z" id="Shape"></path>
                                <path d="M167.276,6.729 C166.577,6.729 165.969,6.836 165.462,7.049 C164.952,7.263 164.524,7.549 164.171,7.907 C163.821,8.266 163.563,8.674 163.393,9.129 C163.223,9.585 163.137,10.056 163.137,10.541 C163.137,11.026 163.223,11.501 163.393,11.966 C163.563,12.433 163.826,12.845 164.171,13.204 C164.522,13.561 164.952,13.852 165.462,14.075 C165.973,14.3 166.566,14.409 167.247,14.409 L169.077,14.409 C169.497,14.409 169.86,14.477 170.171,14.614 C170.483,14.751 170.741,14.934 170.952,15.167 C171.161,15.399 171.315,15.663 171.417,15.954 C171.518,16.243 171.567,16.534 171.567,16.825 C171.567,17.446 171.356,18.005 170.936,18.499 C170.514,18.993 169.895,19.241 169.077,19.241 L167.276,19.241 C165.796,19.241 164.497,18.993 163.376,18.499 C162.257,18.005 161.321,17.36 160.571,16.563 C159.821,15.768 159.26,14.856 158.889,13.829 C158.52,12.802 158.334,11.745 158.334,10.658 C158.334,9.552 158.528,8.475 158.92,7.428 C159.311,6.38 159.889,5.44 160.66,4.605 C161.43,3.771 162.399,3.102 163.569,2.597 C164.74,2.092 166.104,1.84 167.664,1.84 L169.074,1.84 C169.494,1.84 169.858,1.908 170.17,2.044 C170.481,2.18 170.74,2.364 170.949,2.597 C171.16,2.829 171.319,3.092 171.428,3.383 C171.539,3.674 171.594,3.975 171.594,4.285 C171.594,4.596 171.539,4.896 171.428,5.187 C171.321,5.478 171.158,5.74 170.949,5.973 C170.74,6.206 170.477,6.39 170.17,6.526 C169.858,6.662 169.494,6.73 169.074,6.73 L167.276,6.729 L167.276,6.729 Z" id="Shape"></path>
                                <path d="M178.254,16.828 C178.254,17.604 178.01,18.196 177.522,18.602 C177.032,19.009 176.456,19.212 175.795,19.212 C175.115,19.212 174.528,19.009 174.039,18.602 C173.549,18.196 173.305,17.604 173.305,16.828 L173.305,4.256 C173.305,3.48 173.549,2.888 174.039,2.481 C174.528,2.074 175.115,1.87 175.795,1.87 C176.455,1.87 177.028,2.074 177.522,2.481 C178.01,2.889 178.254,3.481 178.254,4.256 L178.254,8.242 L182.275,2.684 C182.554,2.393 182.842,2.17 183.146,2.015 C183.445,1.86 183.793,1.782 184.195,1.782 C184.536,1.782 184.859,1.85 185.171,1.986 C185.483,2.122 185.757,2.297 185.997,2.51 C186.236,2.724 186.427,2.981 186.566,3.281 C186.706,3.582 186.775,3.887 186.775,4.198 C186.775,4.76 186.587,5.256 186.206,5.682 L181.827,10.454 L186.206,15.312 C186.605,15.759 186.806,16.263 186.806,16.826 C186.806,17.156 186.734,17.467 186.581,17.758 C186.431,18.049 186.236,18.301 185.997,18.515 C185.757,18.73 185.48,18.904 185.171,19.039 C184.861,19.174 184.546,19.242 184.228,19.242 C183.466,19.242 182.828,18.931 182.306,18.31 L178.257,12.839 L178.257,16.825 L178.255,16.825 L178.255,16.828 L178.254,16.828 Z" id="Shape"></path>
                            </g>
                        </g>
                    </g>
                </g>
            </g>
        </g>
    </g>
</svg>
